_images/SocialNetwork/StackOverflow.svg

<svg width="30" height="30" viewBox="0 0 30 30" fill="none" xmlns="http://www.w3.org/2000/svg">
<path fill-rule="evenodd" clip-rule="evenodd" d="M15 30C23.2843 30 30 23.2843 30 15C30 6.71573 23.2843 0 15 0C6.71573 0 0 6.71573 0 15C0 23.2843 6.71573 30 15 30Z" fill="#FF810F"/>
<path fill-rule="evenodd" clip-rule="evenodd" d="M17.5358 22.3301L9.57274 22.3338L9.57206 20.6475L17.5348 20.6434L17.5358 22.3301ZM22.9167 12.7795L21.5544 5L19.8786 5.28834L21.2406 13.0679L22.9167 12.7795ZM17.7273 18.4811L9.7982 17.7567L9.64208 19.4363L17.5713 20.1601L17.7273 18.4811ZM18.2504 16.2805L10.5608 14.2308L10.119 15.8592L17.8091 17.9092L18.2504 16.2805ZM19.2543 14.3515L12.3956 10.3402L11.5312 11.7923L18.3902 15.8039L19.2543 14.3515ZM20.9361 13.1704L19.531 14.1201L15.0444 7.5966L16.4497 6.64654L20.9361 13.1704ZM18.8882 16.7827H20.2416V25H7.08333V16.7827H8.44368V23.6768H18.8882V16.7827Z" fill="white"/>
</svg>

<svg xmlns="http://www.w3.org/2000/svg" width="30" height="30" fill="none"><path fill="#FF810F" fill-rule="evenodd" d="M15 30c8.284 0 15-6.716 15-15 0-8.284-6.716-15-15-15C6.716 0 0 6.716 0 15c0 8.284 6.716 15 15 15Z" clip-rule="evenodd"/><path fill="#fff" fill-rule="evenodd" d="m17.536 22.33-7.963.004v-1.686l7.962-.005v1.687Zm5.38-9.55L21.555 5l-1.675.288 1.362 7.78 1.676-.288Zm-5.189 5.701-7.929-.724-.156 1.68 7.93.723.155-1.679Zm.523-2.2-7.69-2.05-.441 1.628 7.69 2.05.441-1.628Zm1.004-1.93-6.858-4.01-.865 1.451 6.86 4.012.863-1.453Zm1.682-1.18-1.405.95-4.487-6.524 1.406-.95 4.486 6.523Zm-2.048 3.612h1.354V25H7.083v-8.217h1.36v6.894h10.445v-6.894Z" clip-rule="evenodd"/></svg>
